src/svgs/face-id.svg

<svg xmlns="http://www.w3.org/2000/svg" viewBox="0 0 24 24" width="512" height="512"><path d="M5 2a3.015 3.015 0 00-3 3v2h2V5a.984.984 0 011-1h2V2zm12 0v2h2a.984.984 0 011 1v2h2V5a3.015 3.015 0 00-3-3zM6 7v4h2V7zm5 0v5h-1v2h1a2.015 2.015 0 002-2V7zm5 0v4h2V7zM2 17v2a3.015 3.015 0 003 3h2v-2H5a.984.984 0 01-1-1v-2zm18 0v2a.984.984 0 01-1 1h-2v2h2a3.015 3.015 0 003-3v-2zm-4.014-2.014l1.437 1.437a6.995 6.995 0 01-10.846 0l1.437-1.437a4.951 4.951 0 007.972 0z"/></svg>

<svg xmlns="http://www.w3.org/2000/svg" viewBox="0 0 24 24"><path d="M5,2A3.015,3.015,0,0,0,2,5V7H4V5A.984.984,0,0,1,5,4H7V2ZM17,2V4h2a.984.984,0,0,1,1,1V7h2V5a3.015,3.015,0,0,0-3-3ZM6,7v4H8V7Zm5,0v5H10v2h1a2.015,2.015,0,0,0,2-2V7Zm5,0v4h2V7ZM2,17v2a3.015,3.015,0,0,0,3,3H7V20H5a.984.984,0,0,1-1-1V17Zm18,0v2a.984.984,0,0,1-1,1H17v2h2a3.015,3.015,0,0,0,3-3V17Zm-4.014-2.014,1.437,1.437a6.995,6.995,0,0,1-10.846,0l1.437-1.437a4.951,4.951,0,0,0,7.972,0Z"/></svg>
